client/src/assets/public/images/icons/avatar_green.svg

<svg xmlns="http://www.w3.org/2000/svg" width="44" height="44" fill="#48a9a6" fill-rule="nonzero"><path d="M21.67 43.615C9.735 43.615 0 33.88 0 21.945S9.735.22 21.67.22 43.34 9.955 43.34 21.9s-9.68 21.725-21.67 21.725zm0-41.7c-11 0-19.965 8.965-19.965 19.965S10.67 41.855 21.67 41.855 41.635 32.9 41.635 21.9 32.725 1.925 21.67 1.925z"/><path d="M7.92 38.4c-.33 0-.66-.22-.77-.55-.165-.44.055-.935.495-1.1l7.6-3.08c.825-.33 1.375-1.155 1.375-2.1 0-.1 0-.165.055-.275a8.53 8.53 0 0 1-3.41-6.105c-.715-.55-1.1-1.32-1.1-2.255 0-.88.385-1.65 1.045-2.2V18.15c0-2.64 1.2-5.06 3.245-6.7s4.73-2.2 7.315-1.595c3.74.935 6.5 4.5 6.5 8.58V20.8c.66.55 1.1 1.32 1.1 2.2s-.44 1.705-1.1 2.255c-.22 2.42-1.485 4.62-3.4 6.05.055.1.055.165.055.275 0 .935.55 1.705 1.375 2.035l7.645 3.025c.44.165.66.66.495 1.1s-.66.66-1.1.495L27.665 35.2a3.93 3.93 0 0 1-2.365-2.805h-.66c-.385 0-.77-.275-.825-.66-.165-.385.055-.77.44-.935 2.475-1 4.18-3.4 4.3-6.105 0-.33.22-.605.495-.715.385-.165.605-.55.605-1s-.22-.77-.605-1c-.275-.165-.44-.44-.44-.77v-2.86c0-3.245-2.2-6.16-5.225-6.875a7 7 0 0 0-5.885 1.265 6.8 6.8 0 0 0-2.585 5.39v3.08c0 .33-.165.605-.44.77-.385.165-.605.55-.605 1s.22.77.605 1a1.08 1.08 0 0 1 .495.715c.1 2.695 1.76 5.06 4.3 6.105.385.165.605.55.495.935-.055.385-.44.66-.825.66h-.77a3.93 3.93 0 0 1-2.365 2.805l-7.6 3.08c-.055.1-.165.1-.275.1z"/></svg>

<?xml version="1.0" encoding="UTF-8"?>
<svg width="44px" height="44px" viewBox="0 0 44 44" version="1.1" xmlns="http://www.w3.org/2000/svg" xmlns:xlink="http://www.w3.org/1999/xlink">
    <!-- Generator: Sketch 48.2 (47327) - http://www.bohemiancoding.com/sketch -->
    <title>avatar</title>
    <desc>Created with Sketch.</desc>
    <defs></defs>
    <g id="Course-2" stroke="none" stroke-width="1" fill="none" fill-rule="evenodd" transform="translate(-51.000000, -1927.000000)">
        <g id="Evaluaciones" transform="translate(48.000000, 1822.000000)" fill="#48A9A6" fill-rule="nonzero">
            <g id="Review" transform="translate(0.000000, 105.000000)">
                <g id="avatar" transform="translate(3.000000, 0.000000)">
                    <path d="M21.67,43.615 C9.735,43.615 0,33.88 0,21.945 C0,10.01 9.735,0.22 21.67,0.22 C33.605,0.22 43.34,9.955 43.34,21.89 C43.34,33.825 33.66,43.615 21.67,43.615 Z M21.67,1.925 C10.67,1.925 1.705,10.89 1.705,21.89 C1.705,32.89 10.67,41.855 21.67,41.855 C32.67,41.855 41.635,32.89 41.635,21.89 C41.635,10.89 32.725,1.925 21.67,1.925 Z" id="Shape"></path>
                    <path d="M7.92,38.39 C7.59,38.39 7.26,38.17 7.15,37.84 C6.985,37.4 7.205,36.905 7.645,36.74 L15.235,33.66 C16.06,33.33 16.61,32.505 16.61,31.57 C16.61,31.46 16.61,31.405 16.665,31.295 C14.74,29.865 13.475,27.665 13.255,25.19 C12.54,24.64 12.155,23.87 12.155,22.935 C12.155,22.055 12.54,21.285 13.2,20.735 L13.2,18.15 C13.2,15.51 14.41,13.09 16.445,11.44 C18.48,9.79 21.175,9.24 23.76,9.845 C27.5,10.78 30.25,14.355 30.25,18.425 L30.25,20.79 C30.91,21.34 31.35,22.11 31.35,22.99 C31.35,23.87 30.91,24.695 30.25,25.245 C30.03,27.665 28.765,29.865 26.84,31.295 C26.895,31.405 26.895,31.46 26.895,31.57 C26.895,32.505 27.445,33.275 28.27,33.605 L35.915,36.63 C36.355,36.795 36.575,37.29 36.41,37.73 C36.245,38.17 35.75,38.39 35.31,38.225 L27.665,35.2 C26.455,34.705 25.575,33.66 25.3,32.395 L24.64,32.395 C24.255,32.395 23.87,32.12 23.815,31.735 C23.65,31.35 23.87,30.965 24.255,30.8 C26.73,29.81 28.435,27.39 28.545,24.695 C28.545,24.365 28.765,24.09 29.04,23.98 C29.425,23.815 29.645,23.43 29.645,22.99 C29.645,22.55 29.425,22.22 29.04,22 C28.765,21.835 28.6,21.56 28.6,21.23 L28.6,18.37 C28.6,15.125 26.4,12.21 23.375,11.495 C21.285,11 19.14,11.495 17.49,12.76 C15.84,14.08 14.905,16.005 14.905,18.15 L14.905,21.23 C14.905,21.56 14.74,21.835 14.465,22 C14.08,22.165 13.86,22.55 13.86,22.99 C13.86,23.43 14.08,23.76 14.465,23.98 C14.74,24.145 14.905,24.42 14.96,24.695 C15.07,27.39 16.72,29.755 19.25,30.8 C19.635,30.965 19.855,31.35 19.745,31.735 C19.69,32.12 19.305,32.395 18.92,32.395 L18.15,32.395 C17.875,33.66 16.995,34.705 15.785,35.2 L8.195,38.28 C8.14,38.39 8.03,38.39 7.92,38.39 Z" id="Shape"></path>
                </g>
            </g>
        </g>
    </g>
</svg>
